images/laravel.svg

<svg width="80" height="80" viewBox="0 0 80 80" fill="none" xmlns="http://www.w3.org/2000/svg">
<path d="M75.658 38.3782C75.1864 37.8391 68.6061 29.6083 67.4494 28.216C66.2932 26.8235 65.7204 27.0703 65.0129 27.1714C64.2943 27.2725 55.9733 28.6761 55.008 28.8335C54.0421 29.0019 53.4357 29.3836 54.031 30.2146C54.5586 30.9557 60.0271 38.715 61.24 40.4218L39.489 45.6321L22.174 16.7171C21.4888 15.6953 21.343 15.3361 19.7708 15.4146C18.1988 15.4819 6.19489 16.4813 5.34129 16.56C4.48801 16.6274 3.54473 17.0092 4.39817 19.0303C5.25161 21.0517 18.8836 50.4271 19.2655 51.2802C19.6472 52.1336 20.6354 53.5263 22.9485 52.9647C25.3179 52.3921 33.5375 50.2471 38.0293 49.0682C40.3985 53.3686 45.2386 62.0825 46.1366 63.3291C47.3271 65.0022 48.158 64.7218 49.9883 64.1602C51.4257 63.7221 72.4013 56.1758 73.3447 55.7944C74.2879 55.4011 74.8718 55.1316 74.2318 54.1772C73.7602 53.4811 68.2244 46.0696 65.3274 42.1846C67.315 41.6569 74.3779 39.7816 75.1302 39.5682C76.0175 39.3438 76.1411 38.9171 75.658 38.3782ZM36.1094 46.463C35.851 46.5191 23.6674 49.4388 23.0161 49.5847C22.3647 49.731 22.3647 49.6635 22.2861 49.4388C22.2077 49.2141 7.80067 19.4908 7.59848 19.1202C7.39645 18.7494 7.40754 18.4575 7.59848 18.4575C7.78958 18.4575 19.1085 17.4471 19.5014 17.4244C19.9057 17.4021 19.8607 17.4919 20.0068 17.7388C20.0068 17.7388 35.9743 45.2949 36.244 45.7782C36.5358 46.261 36.3675 46.4068 36.1094 46.463ZM70.4704 52.9088C70.6611 53.2118 70.8633 53.4136 70.2457 53.6274C69.6391 53.8521 49.6177 60.6008 49.236 60.7688C48.8429 60.9372 48.5397 60.9935 48.0458 60.2638C47.5518 59.5338 41.0386 48.2711 41.0386 48.2711L62.2394 42.7575C62.7672 42.5891 62.9357 42.4766 63.2724 43.0044C63.598 43.5435 70.2793 52.6055 70.4704 52.9088ZM71.8291 37.8505C71.3572 37.9514 63.5643 39.8828 63.5643 39.8828L57.1974 31.1464C57.018 30.8883 56.8718 30.6411 57.321 30.5849C57.77 30.5289 65.0014 29.2152 65.3274 29.1477C65.6525 29.0689 65.9333 28.9793 66.3379 29.5294C66.7422 30.0796 72.2444 37.0528 72.4577 37.3225C72.6599 37.5808 72.3007 37.738 71.8291 37.8505Z" fill="#F35045"/>
</svg>

<svg width="80" height="80" viewBox="0 0 80 80" fill="none" xmlns="http://www.w3.org/2000/svg"><path d="M75.658 38.378c-.472-.539-7.052-8.77-8.209-10.162-1.156-1.393-1.729-1.146-2.436-1.045-.719.102-9.04 1.505-10.005 1.663-.966.168-1.572.55-.977 1.38.528.742 5.996 8.501 7.209 10.208l-21.751 5.21-17.315-28.915c-.685-1.022-.831-1.38-2.403-1.302-1.572.067-13.576 1.066-14.43 1.145-.853.067-1.796.45-.943 2.47.854 2.022 14.486 31.397 14.867 32.25.382.854 1.37 2.246 3.683 1.685 2.37-.573 10.59-2.718 15.081-3.897 2.37 4.3 7.21 13.015 8.108 14.261 1.19 1.673 2.021 1.393 3.851.831 1.438-.438 22.413-7.984 23.357-8.366.943-.393 1.527-.662.887-1.617-.472-.696-6.008-8.107-8.905-11.992 1.988-.528 9.05-2.403 9.803-2.617.888-.224 1.011-.65.528-1.19zm-39.549 8.085c-.258.056-12.442 2.976-13.093 3.122-.651.146-.651.078-.73-.146-.078-.225-14.485-29.948-14.688-30.319-.202-.37-.19-.663 0-.663.192 0 11.51-1.01 11.903-1.033.405-.022.36.068.506.315 0 0 15.967 27.556 16.237 28.04.292.482.123.628-.135.684zm34.361 6.446c.191.303.393.505-.224.718-.607.225-20.628 6.974-21.01 7.142-.393.168-.696.224-1.19-.505-.494-.73-7.007-11.993-7.007-11.993l21.2-5.514c.528-.168.697-.28 1.033.247.326.54 7.007 9.602 7.198 9.905zm1.36-15.059c-.473.101-8.266 2.033-8.266 2.033l-6.367-8.737c-.179-.258-.325-.505.124-.561.449-.056 7.68-1.37 8.006-1.437.326-.08.606-.169 1.01.381.405.55 5.907 7.524 6.12 7.793.203.259-.156.416-.628.528z" fill="#F35045"/></svg>
